assets/img/webapp/setting-icon.svg

<svg width="12" height="17" viewBox="0 0 12 17" fill="none" xmlns="http://www.w3.org/2000/svg">
<path fill-rule="evenodd" clip-rule="evenodd" d="M2.56764 4.58594C1.978 4.58594 1.5 5.06394 1.5 5.65358V12.173C1.5 12.7626 1.978 13.2406 2.56764 13.2406H9.83965C10.4293 13.2406 10.9073 12.7626 10.9073 12.173V5.65358C10.9073 5.06394 10.4293 4.58594 9.83965 4.58594H2.56764ZM6.20219 7.46094C5.79928 7.46094 5.47266 7.78756 5.47266 8.19047V9.64132C5.47266 10.0442 5.79928 10.3709 6.20219 10.3709C6.6051 10.3709 6.93172 10.0442 6.93172 9.64132V8.19047C6.93172 7.78756 6.6051 7.46094 6.20219 7.46094Z" fill="white"/>
<path d="M8.81457 6.34884V3.66456C8.81457 2.22964 7.65134 1.06641 6.21642 1.06641C4.77347 1.06641 3.60694 2.24219 3.61834 3.68509L3.63939 6.34884H8.81457Z" stroke="white" stroke-width="0.800732"/>
<rect x="0.472656" y="14.3672" width="11.4591" height="2.53069" rx="1.26535" fill="white"/>
<path d="M2.45755 15.6804L2.14215 15.5864L2.19019 15.4287L2.5056 15.5457L2.4962 15.1864H2.65599L2.64554 15.5509L2.95573 15.436L3.00377 15.5948L2.68314 15.6898L2.88993 15.9728L2.76043 16.071L2.56617 15.7702L2.37818 16.0637L2.24763 15.9686L2.45755 15.6804ZM3.90926 15.6804L3.59386 15.5864L3.6419 15.4287L3.95731 15.5457L3.94791 15.1864H4.1077L4.09725 15.5509L4.40744 15.436L4.45548 15.5948L4.13485 15.6898L4.34164 15.9728L4.21214 16.071L4.01788 15.7702L3.82989 16.0637L3.69934 15.9686L3.90926 15.6804ZM5.36097 15.6804L5.04557 15.5864L5.09361 15.4287L5.40901 15.5457L5.39962 15.1864H5.55941L5.54896 15.5509L5.85915 15.436L5.90719 15.5948L5.58656 15.6898L5.79335 15.9728L5.66385 16.071L5.46959 15.7702L5.2816 16.0637L5.15105 15.9686L5.36097 15.6804ZM6.81268 15.6804L6.49727 15.5864L6.54532 15.4287L6.86072 15.5457L6.85132 15.1864H7.01112L7.00067 15.5509L7.31086 15.436L7.3589 15.5948L7.03827 15.6898L7.24506 15.9728L7.11556 16.071L6.9213 15.7702L6.73331 16.0637L6.60276 15.9686L6.81268 15.6804ZM8.26439 15.6804L7.94898 15.5864L7.99703 15.4287L8.31243 15.5457L8.30303 15.1864H8.46283L8.45238 15.5509L8.76257 15.436L8.81061 15.5948L8.48998 15.6898L8.69677 15.9728L8.56727 16.071L8.37301 15.7702L8.18502 16.0637L8.05447 15.9686L8.26439 15.6804ZM9.7161 15.6804L9.40069 15.5864L9.44874 15.4287L9.76414 15.5457L9.75474 15.1864H9.91454L9.90409 15.5509L10.2143 15.436L10.2623 15.5948L9.94169 15.6898L10.1485 15.9728L10.019 16.071L9.82472 15.7702L9.63673 16.0637L9.50618 15.9686L9.7161 15.6804Z" fill="#333333"/>
</svg>

<svg width="12" height="17" fill="none" xmlns="http://www.w3.org/2000/svg"><path fill-rule="evenodd" clip-rule="evenodd" d="M2.568 4.586c-.59 0-1.068.478-1.068 1.068v6.519c0 .59.478 1.068 1.068 1.068H9.84c.59 0 1.067-.478 1.067-1.068v-6.52c0-.59-.478-1.067-1.067-1.067H2.568zM6.202 7.46a.73.73 0 00-.73.73v1.45a.73.73 0 001.46 0V8.19a.73.73 0 00-.73-.73z" fill="#fff"/><path d="M8.815 6.349V3.665a2.598 2.598 0 10-5.197.02L3.64 6.35h5.176z" stroke="#fff" stroke-width=".801"/><rect x=".473" y="14.367" width="11.459" height="2.531" rx="1.265" fill="#fff"/><path d="M2.458 15.68l-.316-.094.048-.157.316.117-.01-.36h.16l-.01.365.31-.115.048.159-.32.095.206.283-.13.098-.194-.3-.188.293-.13-.095.21-.289zm1.451 0l-.315-.094.048-.157.315.117-.01-.36h.16l-.01.365.31-.115.048.159-.32.095.207.283-.13.098-.194-.3-.188.293-.13-.095.21-.289zm1.452 0l-.315-.094.048-.157.315.117-.01-.36h.16l-.01.365.31-.115.048.159-.32.095.206.283-.13.098-.193-.3-.188.293-.131-.095.21-.289zm1.452 0l-.316-.094.048-.157.316.117-.01-.36h.16l-.01.365.31-.115.048.159-.32.095.206.283-.13.098-.194-.3-.188.293-.13-.095.21-.289zm1.451 0l-.315-.094.048-.157.315.117-.009-.36h.16l-.01.365.31-.115.048.159-.321.095.207.283-.13.098-.194-.3-.188.293-.13-.095.21-.289zm1.452 0l-.315-.094.048-.157.315.117-.01-.36h.16l-.01.365.31-.115.048.159-.32.095.207.283-.13.098-.194-.3-.188.293-.13-.095.21-.289z" fill="#333"/></svg>
